X: 21186
T: Katie Scollard's
R: slide
M: 12/8
K: Amixolydian
|:e2 A cBA e2 A d2 f|e2 A cBA d3 f3|
e2 A cBA e2 A d2 f|efe d2 B A3 A3:|
|:a2 g e2 a g2 e d2 f|a2 g e2 g a3 b3|
a2 g e2 a g2 e d2 f|efe d2 B A3 A3:|

